X: 14
T:Alunelul de la Maramures
O:Romania
Z:transcribed by Jutta Weber_Karn
Z:adapted and converted to abc notation by Seymour Shlien
F:http://www.folkloretanznoten.de/
M:2/4
L:1/8
K:Am
Q:1/4=160
V:1
 g3/2^f/ g3/2a/  |g3/2e/ e3/2d/    |\
 c2 d2           |e4               |
 g3/2^f/ g3/2a/  |g3/2=f/ e3/2d/   |\
 c2 B2           |[1A3G            :|[2A4           |:
 {B}c3/2c/ e3/2c/|d3 G             |{B}c3/2c/ e3/2c/|\
 {^F}G3z         | 
 {B}c3/2c/ e3/2c/|d3 B/d/          |\
 c2 B2           |[1A3 G           :|[2 A4          |
V:2 clef=treble
 C3/2G/G,3/2E/   |C3/2G/C3/2E/     |\
 C3/2E/B,3/2D/   |C3/2E/G,3/2E/    |
 C,3/2E/E,3/2E/  |^F,3/2E/G,3/2C/  |\
 A,3/2E/E,3/2E/  |[1A,3/2E/G,3/2E/ :|[2A3/2E/ A2    |:
 C3/2G/ E3/2G/   |G,3/2F/ B,3/2G/  |\
 C3/2G/E3/2G/    |G,3/2F/B,3/2G/   |
 C3/2G/E3/2G/    |G,3/2G/^G,3/2E/  |\
 A,3/2E/E,3/2A/  |[1A,3/2E/G,3/2E/ :|[2A3/2E/ A2    |



